!!!COM: des Prez, Josquin
!!!CDT: ~1450-1521/08/27
!!!OTL: Douleur me bat
!!!AGN: Chanson
!!!SCT: NJE 29.4
!!!SCA: New Josquin Edition 29.4
!!!voices: 5
**kern	**text	**kern	**text	**kern	**text	**kern	**text	**kern	**text
*staff5	*	*staff4	*	*staff3	*	*staff2	*	*staff1	*
*Ivox	*	*Ivox	*	*Ivox	*	*Ivox	*	*Ivox	*
*I"Bassus	*	*I"Tenor	*	*I"Contratenor	*	*I"Quintus	*	*I"Superius	*
*I'B	*	*I'T	*	*I'Ct	*	*I'Q	*	*I'S	*
*clefF4	*	*clefGv2	*	*clefGv2	*	*clefGv2	*	*clefG2	*
*k[]	*	*k[]	*	*k[]	*	*k[]	*	*k[]	*
*M2/1	*	*M2/1	*	*M2/1	*	*M2/1	*	*M2/1	*
*met(C|)	*	*met(C|)	*	*met(C|)	*	*met(C|)	*	*met(C|)	*
=1-	=1-	=1-	=1-	=1-	=1-	=1-	=1-	=1-	=1-
!	!	!LO:TX:Z=6:t=Canon at the upper 5th (T-->Q, 2 breves)	!	!	!	!	!	!	!
0r	.	0r	.	1e	Dou-	0r	.	1r	.
.	.	.	.	2e\	-leur	.	.	1e	Dou-
.	.	.	.	[2e\	me	.	.	.	.
=2	=2	=2	=2	=2	=2	=2	=2	=2	=2
0r	.	0r	.	2e\]	.	0r	.	1f	-leur
.	.	.	.	4d\	.	.	.	.	.
.	.	.	.	4c\	.	.	.	.	.
.	.	.	.	1d	.	.	.	1f	me
=3	=3	=3	=3	=3	=3	=3	=3	=3	=3
1r	.	0r	.	0e	-bat,	0r	.	2.e/	bat,
.	.	.	.	.	.	.	.	4f/	.
1E	Dou-	.	.	.	.	.	.	1g	.
=4	=4	=4	=4	=4	=4	=4	=4	=4	=4
1F	-leur	0r	.	0r	.	0r	.	2r	.
.	.	.	.	.	.	.	.	2a/	dou-
1F	me	.	.	.	.	.	.	2a/	-leur
.	.	.	.	.	.	.	.	[2a/	me
=5	=5	=5	=5	=5	=5	=5	=5	=5	=5
1E	bat,	1r	.	2r	.	0r	.	2a/]	.
.	.	.	.	2e\	dou-	.	.	4g#i/	.
.	.	.	.	.	.	.	.	4f#i/	.
1r	.	1E	Dou-	2e\	-leur	.	.	1g#i	.
.	.	.	.	[2e\	me	.	.	.	.
=6	=6	=6	=6	=6	=6	=6	=6	=6	=6
2r	.	1F	-leur	2e\]	.	0r	.	0a	bat,
2A\	dou-	.	.	4d\	.	.	.	.	.
.	.	.	.	4c\	.	.	.	.	.
2A\	-leur	1F	me	1d	.	.	.	.	.
[2A\	me	.	.	.	.	.	.	.	.
=7	=7	=7	=7	=7	=7	=7	=7	=7	=7
2A\]	.	0E	bat,	0e	bat,	1r	.	0r	.
4G#i\	.	.	.	.	.	.	.	.	.
4F#i\	.	.	.	.	.	.	.	.	.
1G#i	.	.	.	.	.	1B	Dou-	.	.
=8	=8	=8	=8	=8	=8	=8	=8	=8	=8
1A	bat,	1r	.	1r	.	1c	-leur	2r	.
.	.	.	.	.	.	.	.	2e/	et
2r	.	1A	et	1e	et	1c	me	2e/	tris-
2AA/	dou-	.	.	.	.	.	.	2e/	-tes-
=9	=9	=9	=9	=9	=9	=9	=9	=9	=9
1E	-leur	1G	tris-	1e	tris-	0B	bat,	2.g/	-se
.	.	.	.	.	.	.	.	4a/	.
1E	me	1G	-tes-	1e	-tes-	.	.	4b\	.
.	.	.	.	.	.	.	.	4cc\	.
.	.	.	.	.	.	.	.	[2b\	.
=10	=10	=10	=10	=10	=10	=10	=10	=10	=10
1AA	bat,	1A	-se	2c\	-se	1r	.	4b\]	.
.	.	.	.	.	.	.	.	4a/	m'a-
.	.	.	.	2A/	m'a-	.	.	1a	-fol-
1r	.	1E	m'a-	1B	-fol-	1e	et	.	.
.	.	.	.	.	.	.	.	2g#i/	.
=11	=10	=11	=11	=11	=11	=11	=11	=11	=11
1D	et	0F	fol-	2A/	-le,	1d	tris-	0a	-le,
.	.	.	.	4D/	m'a-	.	.	.	.
.	.	.	.	4E/	.	.	.	.	.
2D\	tris-	.	.	4F/	.	1d	-tes-	.	.
.	.	.	.	4G/	.	.	.	.	.
2D\	-tes-	.	.	4A/	.	.	.	.	.
.	.	.	.	4F/	.	.	.	.	.
=12	=12	=12	=12	=12	=12	=12	=12	=12	=12
2C/	-se	0E	-le,	2G/	.	1e	-se	0r	.
2AA/	m'a-	.	.	1A	-fol-	.	.	.	.
1E	-fol-	.	.	.	.	1B	m'a-	.	.
.	.	.	.	2G#i/	.	.	.	.	.
=13	=13	=13	=13	=13	=13	=13	=13	=13	=13
0AA	-le,	0r	.	0A	-le,	0c	fol-	2r	.
.	.	.	.	.	.	.	.	2a/	A-
.	.	.	.	.	.	.	.	2a/	-mour
.	.	.	.	.	.	.	.	[2a/	me
=14	=14	=14	=14	=14	=14	=14	=14	=14	=14
0r	.	0E	A-	2r	.	0B	-le,	2a/]	.
.	.	.	.	2e\	A-	.	.	4g#i/	.
.	.	.	.	.	.	.	.	4f#i/	.
.	.	.	.	2e\	-mour	.	.	1g#i	.
.	.	.	.	[2e\	me	.	.	.	.
=15	=15	=15	=15	=15	=15	=15	=15	=15	=15
2r	.	1F	-mour	2e\]	.	0r	.	0a	nuyt,
2A\	A-	.	.	4d\	.	.	.	.	.
.	.	.	.	4c\	.	.	.	.	.
2A\	-mour	1F	me	1d	.	.	.	.	.
[2A\	me	.	.	.	.	.	.	.	.
=16	=16	=16	=16	=16	=16	=16	=16	=16	=16
2A\]	.	0E	nuyt,	0e	nuyt,	0B	A-	0r	.
4G#i\	.	.	.	.	.	.	.	.	.
4F#i\	.	.	.	.	.	.	.	.	.
1G#i	.	.	.	.	.	.	.	.	.
=17	=17	=17	=17	=17	=17	=17	=17	=17	=17
1A	nuyt,	1r	.	1r	.	1c	-mour	2r	.
.	.	.	.	.	.	.	.	2e/	et
2r	.	1A	et	1e	et	1c	me	2e/	mal-
2AA/	a-	.	.	.	.	.	.	2e/	-heur
=18	=18	=18	=18	=18	=18	=18	=18	=18	=18
1E	-mour	1G	mal-	1e	mal-	0B	nuyt,	2.g/	me
.	.	.	.	.	.	.	.	4a/	.
1E	me	1G	-heur	1e	-heur	.	.	4b\	.
.	.	.	.	.	.	.	.	4cc\	.
.	.	.	.	.	.	.	.	[2b\	.
=19	=19	=19	=19	=19	=19	=19	=19	=19	=19
1AA	nuyt,	1A	me	2c\	me	1r	.	4b\]	.
.	.	.	.	.	.	.	.	4a/	con-
.	.	.	.	2A/	con-	.	.	1a	-sol-
1r	.	1E	con-	1B	-sol-	1e	et	.	.
.	.	.	.	.	.	.	.	2g#i/	.
=20	=20	=20	=20	=20	=20	=20	=20	=20	=20
1D	et	0F	-sol-	1A	-le,	1d	mal-	0a	-le,
2D\	mal-	.	.	2r	.	1d	-heur	.	.
2D\	-heur	.	.	2A/	et	.	.	.	.
=21	=21	=21	=21	=21	=21	=21	=21	=21	=21
2C/	me	0E	-le,	2c\	mal-	1e	me	0r	.
2AA/	con-	.	.	2c\	-heur	.	.	.	.
2.E\	-sol-	.	.	[1G	me	1B	con-	.	.
4D\	.	.	.	.	.	.	.	.	.
=22	=22	=22	=22	=22	=22	=22	=22	=22	=22
4C/	.	0r	.	2G/]	.	0c	-sol-	1r	.
4BB/	.	.	.	.	.	.	.	.	.
1C	.	.	.	2G/	con-	.	.	.	.
.	.	.	.	2.E/	-sol-	.	.	[1g	Vou-
4BB/	.	.	.	.	.	.	.	.	.
4AA/	.	.	.	4F/	.	.	.	.	.
=23	=23	=23	=23	=23	=23	=23	=23	=23	=23
[0GG	-le,	1r	.	0G	-le,	0B	-le,	2g/]	.
.	.	.	.	.	.	.	.	2g/	-loir
.	.	[1G	Vou-	.	.	.	.	1g	me
=24	=24	=24	=24	=24	=24	=24	=24	=24	=24
0GG]	.	2G/]	.	1r	.	0r	.	0d	suit,
.	.	2G/	-loir	.	.	.	.	.	.
.	.	1G	me	[1d	Vou-	.	.	.	.
=25	=25	=25	=25	=25	=25	=25	=25	=25	=25
0r	.	1D	suit,	2d\]	.	1r	.	1r	.
.	.	.	.	2d\	-loir	.	.	.	.
.	.	2r	.	1d	me	[1d	Vou-	1a	mais
.	.	2D/	mais	.	.	.	.	.	.
=26	=26	=26	=26	=26	=26	=26	=26	=26	=26
1r	.	1.F	ai-	0D	suit,	2d\]	.	1a	ai-
.	.	.	.	.	.	2d\	-loir	.	.
[1D	Vou-	.	.	.	.	1d	me	2a/	-der
.	.	2F/	-der	.	.	.	.	[2f/	ne
=27	=27	=27	=27	=27	=27	=27	=27	=27	=27
2D\]	.	1F	ne	1r	.	1.A	suit,	4f/]	.
.	.	.	.	.	.	.	.	4e/	.
2D\	-loir	.	.	.	.	.	.	4d/	.
.	.	.	.	.	.	.	.	4c/	.
1D	me	1F	me	1A	mais	.	.	1d	me
.	.	.	.	.	.	2A/	mais	.	.
=28	=28	=28	=28	=28	=28	=28	=28	=28	=28
1AA	suit,	0E	peult,	1A	ai-	1.c	ai-	0e	peult,
1AA	mais	.	.	1A	-der	.	.	.	.
.	.	.	.	.	.	2c\	-der	.	.
=29	=29	=29	=29	=29	=29	=29	=29	=29	=29
2C/	ai-	0r	.	1E	ne	1c	ne	1r	.
2C/	-der	.	.	.	.	.	.	.	.
2C/	ne	.	.	2.E/	me	1c	me	[1g	Jou-
2C/	me	.	.	.	.	.	.	.	.
.	.	.	.	4F/	.	.	.	.	.
=30	=30	=30	=30	=30	=30	=30	=30	=30	=30
[0GG	peult,	1r	.	0G	peult,	0B	peult,	2g/]	.
.	.	.	.	.	.	.	.	2g/	-yr
.	.	[1G	Jou-	.	.	.	.	1g	ne
=31	=31	=31	=31	=31	=31	=31	=31	=31	=31
0GG]	.	2G/]	.	1r	.	0r	.	0d	puis
.	.	2G/	-yr	.	.	.	.	.	.
.	.	1G	ne	[1d	Jou-	.	.	.	.
=32	=32	=32	=32	=32	=32	=32	=32	=32	=32
0r	.	1D	puis	2d\]	.	1r	.	1r	.
.	.	.	.	2d\	-yr	.	.	.	.
.	.	2r	.	1d	ne	[1d	Jou-	1a	d'ung
.	.	2D/	d'ung	.	.	.	.	.	.
=33	=33	=33	=33	=33	=33	=33	=33	=33	=33
1r	.	1.F	grant	0D	puis	2d\]	.	1a	grant
.	.	.	.	.	.	2d\	-yr	.	.
[1D	Jou-	.	.	.	.	1d	ne	2a/	bien
.	.	2F/	bien	.	.	.	.	[2f/	qu'on
=34	=34	=34	=34	=34	=34	=34	=34	=34	=34
2D\]	.	1F	qu'on	1r	.	1A	puis	4f/]	.
.	.	.	.	.	.	.	.	4e/	.
2D\	-yr	.	.	.	.	.	.	4d/	.
.	.	.	.	.	.	.	.	4c/	.
1D	ne	1F	me	1A	d'ung	2r	.	1d	me
.	.	.	.	.	.	2A/	d'ung	.	.
=35	=35	=35	=35	=35	=35	=35	=35	=35	=35
1AA	puis	0E	veult,	1A	grant	1.c	grant	2e/	veult,
.	.	.	.	.	.	.	.	2.cc\	bien
1AA	d'ung	.	.	1A	bien	.	.	.	.
.	.	.	.	.	.	.	.	4b\	.
.	.	.	.	.	.	2c\	bien	2a/	.
=36	=36	=36	=36	=36	=36	=36	=36	=36	=36
2C/	grant	0r	.	1E	qu'on	1c	qu'on	4g/	qu'on
.	.	.	.	.	.	.	.	4f/	.
2C/	bien	.	.	.	.	.	.	4e/	.
.	.	.	.	.	.	.	.	4d/	.
2C/	qu'on	.	.	2.E/	me	1c	me	1e	me
2C/	me	.	.	.	.	.	.	.	.
.	.	.	.	4F/	.	.	.	.	.
=37	=37	=37	=37	=37	=37	=37	=37	=37	=37
1GG	veult,	1r	.	0G	veult,	0B	veult,	1d	veult,
2r	.	1G	De	.	.	.	.	2.dd\	qu'on
[2GG/	De	.	.	.	.	.	.	.	.
.	.	.	.	.	.	.	.	4cc\	.
=38	=38	=38	=38	=38	=38	=38	=38	=38	=38
2GG/]	.	1G	vi-	1.d	De	0r	.	4b-i\	.
.	.	.	.	.	.	.	.	4a/	.
2GG/	vi-	.	.	.	.	.	.	1b-i	me
1GG	-vre ain-	[1B-	-vre ain-	.	.	.	.	.	.
.	.	.	.	2d\	vi-	.	.	4a/	.
.	.	.	.	.	.	.	.	4g/	.
=39	=39	=39	=39	=39	=39	=39	=39	=39	=39
0D	-si,	1B-]	.	1d	-vre ain-	1r	.	1f	veult,
.	.	1A	-si,	1d	-si,	1d	De	2r	.
.	.	.	.	.	.	.	.	[2a/	De
=40	=40	=40	=40	=40	=40	=40	=40	=40	=40
2r	.	1r	.	0r	.	1d	vi-	2a/]	.
1D	de	.	.	.	.	.	.	2a/	vi-
.	.	1D	pour	.	.	[1f	-vre ain-	1f	vre ain-
2D\	vi-	.	.	.	.	.	.	.	.
=41	=41	=41	=41	=41	=41	=41	=41	=41	=41
1D	-vre ain-	1.A	dieu	2r	.	1f]	.	2a/	-si,
.	.	.	.	2d\	pour	.	.	2f/	pour
1AA	-si,	.	.	2c\	dieu	1e	-si,	2cc\	dieu
.	.	2A/	qu'on	2c\	qu'on	.	.	2cc\	qu'on
=42	=42	=42	=42	=42	=42	=42	=42	=42	=42
0r	.	2G/	me	2d\	me	1r	.	2b\	me
.	.	2E/	d&eacute;-	2e\	d&eacute;-	.	.	2g/	d&eacute;-
.	.	1F	-col-	[1c	-col-	1A	pour	1a	-col-
=43	=43	=43	=43	=43	=43	=43	=43	=43	=43
2r	.	0E	-le,	2c\]	.	1.e	dieu	2g/	-le,
2C/	pour	.	.	4B\	.	.	.	2c/	pour
.	.	.	.	4A/	.	.	.	.	.
2C/	dieu	.	.	1G	-le,	.	.	2g/	dieu
2C/	qu'on	.	.	.	.	2e\	qu'on	2g/	qu'on
=44	=44	=44	=44	=44	=44	=44	=44	=44	=44
2D\	me	0r	.	0r	.	2d\	me	2f/	me
2GG/	d&eacute;-	.	.	.	.	2B\	d&eacute;-	2d/	d&eacute;-
2.C/	-col-	.	.	.	.	1c	-col-	1e	-col-
4BB/	.	.	.	.	.	.	.	.	.
=45	=45	=45	=45	=45	=45	=45	=45	=45	=45
1GG	-le,	1r	.	1.d	de	0B	-le,	1d	-le,
2r	.	1G	de	.	.	.	.	2.dd\	d&eacute;-
[2GG/	de	.	.	2d\	vi-	.	.	.	.
.	.	.	.	.	.	.	.	4cc\	.
=46	=46	=46	=46	=46	=46	=46	=46	=46	=46
2GG/]	.	1G	vi-	1d	-vre ain-	0r	.	4b-i\	.
.	.	.	.	.	.	.	.	4a/	.
2GG/	vi-	.	.	.	.	.	.	1b-i	-col-
1GG	-vre ain-	[1B-	-vre ain-	1d	-si,	.	.	.	.
.	.	.	.	.	.	.	.	4a/	.
.	.	.	.	.	.	.	.	4g/	.
=47	=47	=47	=47	=47	=47	=47	=47	=47	=47
0D	-si,	1B-]	.	0r	.	1r	.	1f	-le,
.	.	1A	-si,	.	.	1d	de	2r	.
.	.	.	.	.	.	.	.	[2a/	de
=48	=48	=48	=48	=48	=48	=48	=48	=48	=48
2r	.	1r	.	0r	.	1d	vi-	2a/]	.
1D	de	.	.	.	.	.	.	2a/	vi-
.	.	1D	pour	.	.	[1f	-vre ain-	1f	vre ain-
2D\	vi-	.	.	.	.	.	.	.	.
=49	=49	=49	=49	=49	=49	=49	=49	=49	=49
1D	vre ain-	1.A	dieu	2r	.	1f]	.	2a/	-si,
.	.	.	.	2d\	pour	.	.	2f/	pour
1AA	-si,	.	.	2c\	dieu	1e	-si,	2cc\	dieu
.	.	2A/	qu'on	2c\	qu'on	.	.	2cc\	qu'on
=50	=50	=50	=50	=50	=50	=50	=50	=50	=50
0r	.	2G/	me	2d\	me	1r	.	2b\	me
.	.	2E/	d&eacute;-	2e\	d&eacute;-	.	.	2g/	d&eacute;-
.	.	1F	-col-	[1c	-col-	1A	pour	1a	-col-
=51	=51	=51	=51	=51	=51	=51	=51	=51	=51
2r	.	0E	-le,	2c\]	.	1.e	dieu	2g/	-le,
2C/	pour	.	.	4B\	.	.	.	2c/	pour
.	.	.	.	4A/	.	.	.	.	.
2C/	dieu	.	.	1G	-le,	.	.	2g/	dieu
2C/	qu'on	.	.	.	.	2e\	qu'on	2g/	qu'on
=52	=52	=52	=52	=52	=52	=52	=52	=52	=52
2D\	me	0r	.	1r	.	2d\	me	2f/	me
2GG/	d&eacute;-	.	.	.	.	2B\	d&eacute;-	2d/	d&eacute;-
2.C/	-col-	.	.	2r	.	1c	-col-	1e	-col-
.	.	.	.	2c\	pour	.	.	.	.
4BB/	.	.	.	.	.	.	.	.	.
=53	=53	=53	=53	=53	=53	=53	=53	=53	=53
0GG	-le,	2r	.	2d\	dieu	0B	-le,	1d	-le,
.	.	2G/	pour	2d\	qu'on	.	.	.	.
.	.	2G/	dieu	2d\	me	.	.	1r	.
.	.	2G/	qu'on	[2e\	d&eacute;-	.	.	.	.
=54	=54	=54	=54	=54	=54	=54	=54	=54	=54
0r	.	2F/	me	4e\]	.	0r	.	1r	.
.	.	.	.	4d\	.	.	.	.	.
.	.	2D/	d&eacute;-	1d	-col-	.	.	.	.
.	.	1E	-col-	.	.	.	.	2r	.
.	.	.	.	2c#i\	.	.	.	2g/	pour
=55	=55	=55	=55	=55	=55	=55	=55	=55	=55
2r	.	0D	-le,	2d\	-le,	2r	.	2a/	dieu
2D\	pour	.	.	2f\	pour	2d\	pour	2a/	qu'on
2F\	dieu	.	.	2f\	dieu	2d\	dieu	2a/	me
2D\	qu'on	.	.	2f\	qu'on	2d\	qu'on	[2b\	d&eacute;-
=56	=56	=56	=56	=56	=56	=56	=56	=56	=56
2A\	me	0r	.	2e\	me	2c\	me	4b\]	.
.	.	.	.	.	.	.	.	4a/	.
2F\	d&eacute;-	.	.	2d\	d&eacute;-	2A/	d&eacute;-	1a	-col-
1E	-col-	.	.	1e	-col-	1B	-col-	.	.
.	.	.	.	.	.	.	.	2g#i/	.
=57	=57	=57	=57	=57	=57	=57	=57	=57	=57
2AA/	-le,	2r	.	2c\	-le,	0A	-le,	2a/	-le,
2AA/	pour	2E/	pour	2c\	pour	.	.	2a/	pour
2D\	dieu	2F/	dieu	2d\	dieu	.	.	2.a/	dieu
2AA/	.	2E/	qu'on	2c\	qu'on	.	.	.	.
.	.	.	.	.	.	.	.	4g/	qu'on
=58	=58	=58	=58	=58	=58	=58	=58	=58	=58
2D\	me	2D/	me	2d\	me	0r	.	2f/	me
2AA/	d&eacute;-	2E/	d&eacute;-	2c\	d&eacute;-	.	.	2e/	d&eacute;-
1D	-col-	1F	-col-	1d	-col-	.	.	4d/	-col-
.	.	.	.	.	.	.	.	4e/	.
.	.	.	.	.	.	.	.	4f/	.
.	.	.	.	.	.	.	.	4d/	.
=59	=59	=59	=59	=59	=59	=59	=59	=59	=59
2AA/	-le,	[0El	-le.	2c\	-le,	2r	.	[0el	-le.
2E\	pour	.	.	2G/	pour	2B\	pour	.	.
2AA/	dieu	.	.	2A/	dieu	2c\	dieu	.	.
2E\	qu'on	.	.	2G/	qu'on	2B\	qu'on	.	.
=60	=60	=60	=60	=60	=60	=60	=60	=60	=60
2AA/	me	0E_	.	2c\	me	2A/	me	0e_	.
2GG/	d&eacute;-	.	.	2B\	d&eacute;-	2B\	d&eacute;-	.	.
1AA	-col-	.	.	1A	-col-	1c	-col-	.	.
=61	=61	=61	=61	=61	=61	=61	=61	=61	=61
*^	*	*	*	*	*	*	*	*	*
0EE\l	0E/l	-le.	0El]	.	0Gl	-le.	0Bl	-le.	0el]	.
*v	*v	*	*	*	*	*	*	*	*	*
==	==	==	==	==	==	==	==	==	==
*-	*-	*-	*-	*-	*-	*-	*-	*-	*-
!!!RDF**kern: l=long note in original notation
!!!RDF**kern: i=editorial accidental
!!!ENC: Will Watson 06/09/2011
!!!END: 2011/09/06/
!!!EED: Jesse Rodin
!!!EEV: 2011/10/07/
!!attribution-level@Jos: 2 (provisionally attributable [parentheses checkmark])
!!!ONB: Translated from MusicXML and edited on 2011/10/07/ by Craig Sapp
!!muse2ps:  C^@{COM}\n@{SCT}^i2I150v75,75,75,75,105c105z18l2780t100
